X:1
T:Se voi sete
T:Se voi sete
T:Piero Benedetti
T:Source : Musische di P.Benedetti---Libro secondo---Venetia---R.Amadino---1613. Editor : André Vierendeels (31/05/15).
T:Notes : Original clefs : C1, F4 Figures in BC are notated in original print Composer called "Pietro" in this book 3/4 tact notated as 3/2 in original print Dotted bracket indicates black notes
C:Piero Benedetti
%%score 1 2
L:1/8
Q:1/4=70
M:4/4
K:F
V:1 treble nm="Soprano" snm="S"
V:2 bass nm="MusicXML Part"
V:1
 z2 dG B4- | B2 cd ^F4 | ^F2 z d _edcB | B3 c d2 d/c/B/A/ | A8 | G8 |[M:3/4] B2 B2 c2 | dc Bc d2 | %8
w: Se voi se-|* te'il mio co-|re, tem- pra- te'a- ni- ma|mia co- tan- to'ar- * * *|do-|re,|che s'ar- de-|ro _ _ _ _|
w: Ma se d'ar-|* der go- de-|te, sia- te sem- pre'il mio|cor, e me- co'ar- * * *|de-|te,|che da- ta|for- * * * *|
w: E se d'es|_ ser ne- ga-|te, il cor mio, poi che|mor- te'o- gn'hor mi _ _ _|da-|te,|con- ce- de-|te'al- * * * *|
 _e2 c4 |[M:4/4] B4 z2 d2 | GABG A4 | z2 D2 ED E/D/E/F/ | G3 A A4 | G8 |] %14
w: io po-|i, me-|co'ar- de- te'il mio cor|che se- * * * * *|* te vo-|i.|
w: se'A- mo-|re,- un-|gior- no re- fri- ge'rio|à tan- * * * * *|* t'ar- do-|re.|
w: men vi-|ta, all'|i- ma- gi- * ne|vo- stra'in _ me _ _ _|_ scol- pi-|ta.|
V:2
 G,6 G,D, | _E,4 D,4 | D,4 C,4- | C,4 =B,,4 |"^4""^#" D,4 D,4 |"^-natural" G,,8 | %6
[M:3/4] G,2 G,2 A,2 | B,6 |"^4      3" _E,2 F,2 F,2 |[M:4/4] B,,4 G,,4 | G,4 ^F,4 | G,4 C,2 D,2 | %12
"^#""^4""^4""^#" E,2 E,2 D,2 D,2 | G,,8 |] %14

